app/dist/common/images/deutsche-boerse-na-o-n.svg

<svg height="18" viewBox="0 0 18 18" width="18" xmlns="http://www.w3.org/2000/svg"><path d="m0 0h18v18h-18z" fill="#050099"/><path d="m10.4 9 5.6-3v.87l-3.88 2.13zm-.1-.12-1.55-.88h1.65l.78.4zm-4.9 1.12 3.22-1.84.92.5-2.44 1.34zm-.12-.12-1.53-.88h1.65l.75.47-.87.4zm-3.28.12v1l2.44-1.33-.88-.5-1.56.84z" fill="#fff"/></svg>

<!-- by TradingView --><svg width="18" height="18" viewBox="0 0 18 18" xmlns="http://www.w3.org/2000/svg"><path fill="#050099" d="M0 0h18v18H0z"/><path d="M10.4 9 16 6v.87L12.12 9H10.4Zm-.1-.12L8.75 8h1.65l.78.4-.88.48ZM5.4 10l3.22-1.84.92.5L7.1 10H5.4Zm-.12-.12L3.75 9H5.4l.75.47-.87.4ZM2 10V11l2.44-1.33-.88-.5-1.56.84Z" fill="#fff"/></svg>
